SVG_Azure_Grouped/Deployment/Python.svg

<?xml version="1.0" encoding="UTF-8" standalone="no"?>
<!-- Generated by Microsoft Visio, SVG Export Python.svg Page-1 -->

<svg
   xmlns:dc="http://purl.org/dc/elements/1.1/"
   xmlns:cc="http://creativecommons.org/ns#"
   xmlns:rdf="http://www.w3.org/1999/02/22-rdf-syntax-ns#"
   xmlns:svg="http://www.w3.org/2000/svg"
   xmlns="http://www.w3.org/2000/svg"
   xmlns:sodipodi="http://sodipodi.sourceforge.net/DTD/sodipodi-0.dtd"
   xmlns:inkscape="http://www.inkscape.org/namespaces/inkscape"
   width="0.78744888in"
   height="0.78785616in"
   viewBox="0 0 56.696121 56.725723"
   xml:space="preserve"
   class="st4"
   version="1.1"
   id="svg34"
   sodipodi:docname="Python.svg"
   style="font-size:12px;overflow:visible;color-interpolation-filters:sRGB;fill:none;fill-rule:evenodd;stroke-linecap:square;stroke-miterlimit:3"
   inkscape:version="0.92.5 (2060ec1f9f, 2020-04-08)"><metadata
   id="metadata40"><rdf:RDF><cc:Work
       rdf:about=""><dc:format>image/svg+xml</dc:format><dc:type
         rdf:resource="http://purl.org/dc/dcmitype/StillImage" /></cc:Work></rdf:RDF></metadata><defs
   id="defs38" /><sodipodi:namedview
   pagecolor="#ffffff"
   bordercolor="#666666"
   borderopacity="1"
   objecttolerance="10"
   gridtolerance="10"
   guidetolerance="10"
   inkscape:pageopacity="0"
   inkscape:pageshadow="2"
   inkscape:window-width="640"
   inkscape:window-height="480"
   id="namedview36"
   showgrid="false"
   inkscape:zoom="1.7751878"
   inkscape:cx="37.795214"
   inkscape:cy="21.139361"
   inkscape:window-x="0"
   inkscape:window-y="0"
   inkscape:window-maximized="0"
   inkscape:current-layer="svg34" />
	<style
   type="text/css"
   id="style2">
	<![CDATA[
		.st1 {fill:#3772a4;stroke:none;stroke-linecap:butt;stroke-width:8.9811}
		.st2 {fill:#000000;stroke:none;stroke-linecap:butt;stroke-width:8.9811}
		.st3 {fill:#ffda4b;stroke:none;stroke-linecap:butt;stroke-width:8.9811}
		.st4 {fill:none;fill-rule:evenodd;font-size:12px;overflow:visible;stroke-linecap:square;stroke-miterlimit:3}
	]]>
	</style>

	<g
   id="g32"
   transform="translate(-8.9812831,-8.9827693)">
		<title
   id="title4">Page-1</title>
		<g
   id="group17139-1"
   transform="translate(8.9811,-34.0157)">
			<title
   id="title6">Python.17139</title>
			<g
   id="group17140-2">
				<title
   id="title8">layer1</title>
				<g
   id="shape17141-3"
   transform="translate(0,-14.4977)">
					<title
   id="title10">path6</title>
					<path
   d="M 0,85.41 C 0,85.33 0.05,85.25 0.05,85.17 0.1,84.34 0.11,83.51 0.2,82.69 a 14.1821,14.1909 0 0 1 2.56,-7.46 7.46902,7.47366 0 0 1 5.12,-2.99 7.00108,7.00543 0 0 1 0.9,-0.05 H 27.9 c 0.37,0 0.37,0 0.37,-0.38 v -1.32 c 0,-0.27 -0.08,-0.33 -0.34,-0.33 H 14.9 c -0.22,0 -1.4,-0.07 -1.4,-0.3 v -6.5 c 0,-0.98 1.56,-1.8 2.19,-2.5 a 7.89197,7.89686 0 0 1 3.21,-2.06 19.6804,19.6926 0 0 1 4.61,-1.05 38.7759,38.8 0 0 1 6.47,-0.2 21.1112,21.1243 0 0 1 6.83,1.27 8.3869,8.39211 0 0 1 3.82,2.7 5.39929,5.40264 0 0 1 1.12,3.6 c -0.06,1.1 0,2.22 0,3.32 v 6.14 c 0,1.2 0,2.41 -0.06,3.6 a 6.40716,6.41114 0 0 1 -4.16,5.96 9.49376,9.49965 0 0 1 -3.7,0.71 h -13.5 a 7.72099,7.72578 -180 0 0 -4.13,1.09 7.12707,7.13149 -180 0 0 -3.12,4.37 10.2317,10.238 -180 0 0 -0.38,2.81 v 6.14 c 0,0.4 0,0.4 -0.42,0.4 -1.46,0 -2.94,0.05 -4.41,0 A 6.15519,6.15901 0 0 1 3.96,98.02 9.78172,9.78779 0 0 1 1.26,93.81 17.8987,17.9098 0 0 1 0.24,89.29 C 0.15,88.3 0.12,87.31 0.05,86.32 0.05,86.21 0,86.1 0,85.99 Z"
   class="st1"
   id="path12"
   inkscape:connector-curvature="0"
   style="fill:#3772a4;stroke:none;stroke-width:8.98110008;stroke-linecap:butt" />
				</g>
				<g
   id="shape17142-5"
   transform="translate(17.998,-47.7054)">
					<title
   id="title15">path8</title>
					<path
   d="m 0,97.01 a 2.7,2.7016702 0 0 1 5.4,0 2.7,2.7016702 0 1 1 -5.4,0 z"
   class="st2"
   id="path17"
   inkscape:connector-curvature="0"
   style="fill:#000000;stroke:none;stroke-width:8.98110008;stroke-linecap:butt" />
				</g>
				<g
   id="shape17143-7"
   transform="translate(14.9564)">
					<title
   id="title20">path10</title>
					<path
   d="m 41.74,71.81 a 1.44881,1.44971 -180 0 0 -0.06,0.24 c -0.04,0.83 -0.05,1.66 -0.14,2.48 a 14.1821,14.1909 0 0 1 -2.57,7.43 7.46902,7.47366 0 0 1 -5.12,2.99 7.00108,7.00543 0 0 1 -0.9,0.05 H 13.84 c -0.38,0 -0.38,0 -0.38,0.38 v 1.32 c 0,0.28 0.08,0.34 0.34,0.34 h 13.03 c 0.23,0 0.3,0.06 0.3,0.3 v 6.5 a 3.7885,3.79085 0 0 1 -1.1,2.49 7.89197,7.89686 0 0 1 -3.19,2.09 19.6804,19.6926 0 0 1 -4.6,1.05 38.7759,38.8 0 0 1 -6.48,0.2 A 21.1112,21.1243 0 0 1 4.94,98.4 8.3869,8.39211 0 0 1 1.12,95.7 5.39929,5.40264 0 0 1 0,92.1 C 0.05,91 0,89.88 0,88.78 v -6.14 c 0,-1.2 0,-2.41 0.05,-3.6 a 6.40716,6.41114 0 0 1 4.16,-5.96 9.49376,9.49965 0 0 1 3.71,-0.71 h 13.5 a 7.72099,7.72578 -180 0 0 4.12,-1.09 7.12707,7.13149 -180 0 0 3.12,-4.37 10.2317,10.238 -180 0 0 0.38,-2.81 v -6.14 c 0,-0.4 0,-0.4 0.41,-0.4 1.47,0 2.95,-0.05 4.41,0 a 6.15519,6.15901 0 0 1 3.92,1.65 9.78172,9.78779 0 0 1 2.7,4.2 17.8987,17.9098 0 0 1 1,4.57 c 0.09,0.99 0.12,1.98 0.18,2.97 a 2.92462,2.92643 -180 0 0 0.06,0.32 c 0.01,0.18 0.02,0.36 0.02,0.54 z"
   class="st3"
   id="path22"
   inkscape:connector-curvature="0"
   style="fill:#ffda4b;stroke:none;stroke-width:8.98110008;stroke-linecap:butt" />
				</g>
				<g
   id="shape17144-9"
   transform="translate(33.7549,-4.55682)">
					<title
   id="title25">path12</title>
					<path
   d="m 5.4,97.01 a 2.7,2.7016702 0 1 1 -5.4,0 2.7,2.7016702 0 0 1 5.4,0 z"
   class="st2"
   id="path27"
   inkscape:connector-curvature="0"
   style="fill:#000000;stroke:none;stroke-width:8.98110008;stroke-linecap:butt" />
				</g>
			</g>
		</g>
	</g>
</svg>

<?xml version="1.0" encoding="UTF-8" standalone="no"?>
<!DOCTYPE svg PUBLIC "-//W3C//DTD SVG 1.1//EN" "http://www.w3.org/Graphics/SVG/1.1/DTD/svg11.dtd">
<!-- Generated by Microsoft Visio, SVG Export Python.svg Page-1 -->
<svg xmlns="http://www.w3.org/2000/svg" xmlns:xlink="http://www.w3.org/1999/xlink" xmlns:ev="http://www.w3.org/2001/xml-events"
		width="1.03688in" height="1.38483in" viewBox="0 0 74.6551 99.7079" xml:space="preserve" color-interpolation-filters="sRGB"
		class="st4">
	<style type="text/css">
	<![CDATA[
		.st1 {fill:#3772a4;stroke:none;stroke-linecap:butt;stroke-width:8.9811}
		.st2 {fill:#000000;stroke:none;stroke-linecap:butt;stroke-width:8.9811}
		.st3 {fill:#ffda4b;stroke:none;stroke-linecap:butt;stroke-width:8.9811}
		.st4 {fill:none;fill-rule:evenodd;font-size:12px;overflow:visible;stroke-linecap:square;stroke-miterlimit:3}
	]]>
	</style>

	<g>
		<title>Page-1</title>
		<g id="group16746-1" transform="translate(8.9811,-34.0157)">
			<title>Python.16746</title>
			<g id="group16747-2">
				<title>layer1</title>
				<g id="shape16748-3" transform="translate(2.79776E-13,-14.4977)">
					<title>path6</title>
					<path d="M0 85.41 C0 85.33 0.05 85.25 0.05 85.17 C0.1 84.34 0.11 83.51 0.2 82.69 A14.1821 14.1909 0 0 1 2.76
								 75.23 A7.46902 7.47366 0 0 1 7.88 72.24 A7.00108 7.00543 0 0 1 8.78 72.19 L27.9 72.19 C28.27 72.19
								 28.27 72.19 28.27 71.81 L28.27 70.49 C28.27 70.22 28.19 70.16 27.93 70.16 L14.9 70.16 C14.68 70.16
								 13.5 70.09 13.5 69.86 L13.5 63.36 C13.5 62.38 15.06 61.56 15.69 60.86 A7.89197 7.89686 0 0 1 18.9
								 58.8 A19.6804 19.6926 0 0 1 23.51 57.75 A38.7759 38.8 0 0 1 29.98 57.55 A21.1112 21.1243 0 0 1 36.81
								 58.82 A8.3869 8.39211 0 0 1 40.63 61.52 A5.39929 5.40264 0 0 1 41.75 65.12 C41.69 66.22 41.75 67.34
								 41.75 68.44 L41.75 74.58 C41.75 75.78 41.75 76.99 41.69 78.18 A6.40716 6.41114 0 0 1 37.53 84.14
								 A9.49376 9.49965 0 0 1 33.83 84.85 L20.33 84.85 A7.72099 7.72578 -180 0 0 16.2 85.94 A7.12707 7.13149
								 -180 0 0 13.08 90.31 A10.2317 10.238 -180 0 0 12.7 93.12 L12.7 99.26 C12.7 99.66 12.7 99.66 12.28
								 99.66 C10.82 99.66 9.34 99.71 7.87 99.66 A6.15519 6.15901 0 0 1 3.96 98.02 A9.78172 9.78779 0 0
								 1 1.26 93.81 A17.8987 17.9098 0 0 1 0.24 89.29 C0.15 88.3 0.12 87.31 0.05 86.32 C0.05 86.21 0 86.1
								 0 85.99 L0 85.41 Z" class="st1"/>
				</g>
				<g id="shape16749-5" transform="translate(17.998,-47.7054)">
					<title>path8</title>
					<path d="M0 97.01 A2.69965 2.70132 0 0 1 5.4 97.01 A2.69965 2.70132 0 1 1 0 97.01 Z" class="st2"/>
				</g>
				<g id="shape16750-7" transform="translate(14.9564,0)">
					<title>path10</title>
					<path d="M41.74 71.81 A1.44881 1.44971 -180 0 0 41.68 72.05 C41.64 72.88 41.63 73.71 41.54 74.53 A14.1821 14.1909
								 0 0 1 38.97 81.96 A7.46902 7.47366 0 0 1 33.85 84.95 A7.00108 7.00543 0 0 1 32.95 85 L13.84 85 C13.46
								 85 13.46 85 13.46 85.38 L13.46 86.7 C13.46 86.98 13.54 87.04 13.8 87.04 L26.83 87.04 C27.06 87.04
								 27.13 87.1 27.13 87.34 L27.13 93.84 A3.7885 3.79085 0 0 1 26.03 96.33 A7.89197 7.89686 0 0 1 22.84
								 98.42 A19.6804 19.6926 0 0 1 18.24 99.47 A38.7759 38.8 0 0 1 11.76 99.67 A21.1112 21.1243 0 0 1
								 4.94 98.4 A8.3869 8.39211 0 0 1 1.12 95.7 A5.39929 5.40264 0 0 1 0 92.1 C0.05 91 0 89.88 0 88.78
								 L0 82.64 C0 81.44 0 80.23 0.05 79.04 A6.40716 6.41114 0 0 1 4.21 73.08 A9.49376 9.49965 0 0 1 7.92
								 72.37 L21.42 72.37 A7.72099 7.72578 -180 0 0 25.54 71.28 A7.12707 7.13149 -180 0 0 28.66 66.91 A10.2317
								 10.238 -180 0 0 29.04 64.1 L29.04 57.96 C29.04 57.56 29.04 57.56 29.45 57.56 C30.92 57.56 32.4 57.51
								 33.86 57.56 A6.15519 6.15901 0 0 1 37.78 59.21 A9.78172 9.78779 0 0 1 40.48 63.41 A17.8987 17.9098
								 0 0 1 41.48 67.98 C41.57 68.97 41.6 69.96 41.66 70.95 A2.92462 2.92643 -180 0 0 41.72 71.27 C41.73
								 71.45 41.74 71.63 41.74 71.81 L41.74 71.81 Z" class="st3"/>
				</g>
				<g id="shape16751-9" transform="translate(33.7549,-4.55682)">
					<title>path12</title>
					<path d="M5.4 97.01 A2.69965 2.70132 0 1 1 0 97.01 A2.69965 2.70132 0 0 1 5.4 97.01 Z" class="st2"/>
				</g>
			</g>
		</g>
	</g>
</svg>
